X: 57
M: C
L: 1/8
K: D
(fe) |\
vd2AG kF2A<d | kG2B<d kF2A<d | fdfa gfed | g<Bed kc2fe |
d2AG kF2A<d | kG2B<d kF2A<d | fAgf eGed |1 d4- d2 :|2 d4 d2fg ||
abag fgfe | defd A2ef | gagf efed | c<aB<g A2fg |
abag fgfe | defd A2ef | gBed cBGe | d4- d2fg ||
abag fgfe | defd A2ef | gagf efed | c<aB<g | A2fe |
d2AG kF2A<d | kG2B<d kF2A<d | fAgf "Rall"eGfe | d4 d2 |]


